X: 23373
T: Leitrim, The
R: polka
M: 2/4
K: Dmajor
d2 d>A|Bd A>F|DF Ad|fd e2|
d/e/f/e/ dd/A/|Bd A>F|Da fd|e2 d:|
fa af/e/|fa fe|fa dd/e/|fa e2|
fa af/a/|ba fd|Aa fd|e2 d:|

